X:470
T: Humors of Limerick
S: "Roche Collection of Traditional Irish Music" [III/35/113]
L: 1/8
M: 6/8
R: jig
K: D
D2F A2d | BAF A2F | D2F A2F | EFE FDB, |
D2F A2d | BAF ABc | d2B A2F | EFE FDB, :|
d2e f2d | efe fdB | d2e f2d | ded dBA |
d2e f2d | efe fdB | d2B A2F | EFE FDB, :|
